X:1
T:Title
%%score { ( 1 4 ) | ( 2 3 ) }
L:1/8
Q:1/4=92
M:6/8
K:G
V:1 treble nm="Grand Piano"
V:4 treble 
V:2 treble 
V:3 treble 
V:1
 GGG G2 A | B2 B B2 G | [FA]2 [FA] [FA]2 [GB] |[M:5/8] [Ac]-[Ac]- [Ac]3 |[M:1/8] [FA] | %5
w: D.~S.~B.~Jackson * * * *|||||
[M:3/4] B2 B B2 c | d2 d d2 [EGc] | [DGB]2 [DGB] [CFA]2 [CDA] |[M:5/8] [B,DG]-[B,DG]- [B,DG]3 | %9
w: ||||
[M:1/8] D |[M:3/4] B2 BB- B/A/G | B6 | d2 dd- d/c/B | d6 | [Ge]2 [Ge] [Ec]2 [Ge] | d2 d B2 d | %16
w: |||||||
 [Fd]2 [DFA][Fc]- [Fc]/[DFB]/[CFA] | [G,B,DG]6 |] %18
w: ||
V:2
 [G,B,D][G,B,D][G,B,D] [G,B,D]2 [G,CD] | [G,DG]2 [G,DG] [G,DG]2[K:bass] [G,B,] | %2
 [D,D]2 [D,D] [D,D]2 [D,D] |[M:5/8] [D,D]-[D,D]- [D,D]3 |[M:1/8] [D,D] | %5
[M:3/4][K:treble] [G,DG]2 [G,DG] [G,DG]2 [G,A,G] | [G,B,G]2 [G,B,G] [G,B,G]2[K:bass] C, | %7
 D,2 D, D,2 D, |[M:5/8] G,,-G,,- G,,3 |[M:1/8] [G,B,] |[M:3/4][K:treble] z2 z .D3 | %11
 [G,DG]>[G,D] [G,D] [G,D]2 [G,A,G] | z2 z [G,G]3 | [G,B,G]>[G,B,] [G,B,] [G,B,]2 [G,B,G] | %14
 [C,C]2 [C,C] [C,G,]2 [C,C] | [G,B,G]2 [G,B,G] [G,DG]2 [G,B,G] | [D,A,]2 D,E- E/D,/D, | G,,6 |] %18
V:3
 x6 | x5[K:bass] x | x6 |[M:5/8] x5 |[M:1/8] x |[M:3/4][K:treble] x6 | x5[K:bass] x | x6 | %8
[M:5/8] x5 |[M:1/8] x |[M:3/4][K:treble] [G,DG]3 [G,G]- [G,G]/-[G,-CG]/[G,B,] | x6 | %12
 [G,B,G]3 B,- B,/C/D | x6 | x6 | x6 | x6 | x6 |] %18
V:4
 x6 | x6 | x6 |[M:5/8] x5 |[M:1/8] x |[M:3/4] x6 | x6 | x6 |[M:5/8] x5 |[M:1/8] x |[M:3/4] x6 | %11
 z z/ G/ G G2 c | x6 | z z/ G/ G G2 d | x6 | x6 | x6 | x6 |] %18

